sources/design/Outline/W.svg

<svg:svg xmlns:cc="http://creativecommons.org/ns#" xmlns:dc="http://purl.org/dc/elements/1.1/" xmlns:inkscape="http://www.inkscape.org/namespaces/inkscape" xmlns:rdf="http://www.w3.org/1999/02/22-rdf-syntax-ns#" xmlns:sodipodi="http://sodipodi.sourceforge.net/DTD/sodipodi-0.dtd" xmlns:svg="http://www.w3.org/2000/svg" xml:space="preserve" width="1000" height="1000" version="1.1" style="clip-rule:evenodd;fill-rule:evenodd;image-rendering:optimizeQuality;shape-rendering:geometricPrecision;text-rendering:geometricPrecision" viewBox="0 0 1000 1000" id="svg10" sodipodi:docname="W.svg" inkscape:version="1.1.1 (3bf5ae0d25, 2021-09-20)"><svg:text text-anchor="middle" x="338.67004" y="5.2860184" id="top" inkscape:label="top" style="clip-rule:evenodd;fill-rule:evenodd;image-rendering:optimizeQuality;shape-rendering:geometricPrecision;text-rendering:geometricPrecision">✛</svg:text><svg:metadata id="metadata14"><rdf:RDF><cc:Work rdf:about=""><dc:format>image/svg+xml</dc:format><dc:type rdf:resource="http://purl.org/dc/dcmitype/StillImage" /></cc:Work></rdf:RDF></svg:metadata><sodipodi:namedview pagecolor="#ffffff" bordercolor="#666666" borderopacity="1" objecttolerance="10" gridtolerance="10" guidetolerance="10" inkscape:pageopacity="0" inkscape:pageshadow="2" inkscape:window-width="1920" inkscape:window-height="1129" id="namedview12" showgrid="false" inkscape:zoom="1.4269146" inkscape:cx="286.98284" inkscape:cy="709.92336" inkscape:window-x="0" inkscape:window-y="0" inkscape:window-maximized="1" inkscape:current-layer="svg10" showguides="true" inkscape:guide-bbox="true" inkscape:document-rotation="0" inkscape:pagecheckerboard="0"><sodipodi:guide position="0,1000" orientation="0,1" id="guide16" inkscape:label="" inkscape:locked="true" inkscape:color="rgb(0,0,255)" /><sodipodi:guide position="1763.3122,2036.1693" orientation="1000,0" id="guide18" /><sodipodi:guide position="0,200" orientation="0,1" id="guide20" inkscape:label="base" inkscape:locked="true" inkscape:color="rgb(0,0,255)" /><inkscape:grid type="xygrid" id="grid24" originx="-473.37552" originy="-489.69235" /><sodipodi:guide position="0,0" orientation="0,1" id="guide34" inkscape:label="bottom" inkscape:locked="true" inkscape:color="rgb(0,0,255)" /><sodipodi:guide position="225.05109,1693.3186" orientation="0,1" id="guide44" inkscape:label="" inkscape:locked="false" inkscape:color="rgb(0,0,255)" /><sodipodi:guide position="0,900" orientation="0,1" id="guide46" inkscape:label="" inkscape:locked="true" inkscape:color="rgb(0,0,255)" /><sodipodi:guide position="703.55683,1000" orientation="1,0" id="guide841" inkscape:label="width" />    </sodipodi:namedview>
 <svg:defs id="defs4"><inkscape:path-effect effect="fillet_chamfer" id="path-effect1202" is_visible="true" lpeversion="1" satellites_param="F,0,0,1,0,9.683261,0,1 @ F,0,0,1,0,9.683261,0,1 @ F,0,0,1,0,0,0,1 @ F,0,0,1,0,0,0,1 @ F,0,1,1,0,5.4184073,0,1 @ F,0,0,1,0,5.4184073,0,1 @ F,0,0,1,0,0,0,1 @ F,0,0,1,0,0,0,1 @ F,0,0,1,0,0,0,1 @ F,0,0,1,0,0,0,1 @ F,0,1,1,0,5.4184073,0,1 @ F,0,1,1,0,5.4184073,0,1 @ F,0,0,1,0,0,0,1 @ F,0,0,1,0,0,0,1 @ F,0,0,1,0,9.683261,0,1 @ F,0,0,1,0,9.683261,0,1 @ F,0,0,1,0,0,0,1 @ F,0,0,1,0,0,0,1 @ F,0,0,1,0,0,0,1 @ F,0,0,1,0,0,0,1 @ F,0,0,1,0,0,0,1 @ F,0,0,1,0,0,0,1 @ F,0,0,1,0,11.42124,0,1 @ F,0,0,1,0,11.42124,0,1 @ F,0,0,1,0,0,0,1 @ F,0,0,1,0,0,0,1 @ F,0,0,1,0,0,0,1 @ F,0,0,1,0,0,0,1 @ F,0,0,1,0,0,0,1" unit="px" method="auto" mode="F" radius="0" chamfer_steps="1" flexible="false" use_knot_distance="true" apply_no_radius="true" apply_with_radius="true" only_selected="false" hide_knots="false" /><inkscape:path-effect effect="fillet_chamfer" id="path-effect855" is_visible="true" lpeversion="1" satellites_param="F,0,0,1,0,9.8112539,0,1 @ F,0,0,1,0,9.8112539,0,1 @ F,0,0,1,0,0,0,1 @ F,0,0,1,0,0,0,1 @ F,0,0,1,0,9.8112539,0,1 @ F,0,0,1,0,9.8112539,0,1 @ F,0,0,1,0,0,0,1 @ F,0,0,1,0,0,0,1 @ F,0,0,1,0,0,0,1 @ F,0,0,1,0,0,0,1 @ F,0,0,1,0,9.8112539,0,1 @ F,0,0,1,0,9.8112539,0,1 @ F,0,0,1,0,0,0,1 @ F,0,0,1,0,0,0,1 @ F,0,0,1,0,9.8112539,0,1 @ F,0,0,1,0,9.8112539,0,1 @ F,0,0,1,0,0,0,1 @ F,0,0,1,0,0,0,1 @ F,0,0,1,0,0,0,1 @ F,0,0,1,0,0,0,1 @ F,0,0,1,0,0,0,1 @ F,0,0,1,0,0,0,1 @ F,0,0,1,0,9.8112539,0,1 @ F,0,0,1,0,10.790443,0,1 @ F,0,0,1,0,0,0,1 @ F,0,0,1,0,0,0,1 @ F,0,0,1,0,0,0,1 @ F,0,0,1,0,0,0,1 @ F,0,0,1,0,0,0,1" unit="px" method="auto" mode="F" radius="0" chamfer_steps="1" flexible="false" use_knot_distance="true" apply_no_radius="true" apply_with_radius="true" only_selected="false" hide_knots="false" /><inkscape:path-effect effect="fillet_chamfer" id="path-effect854" is_visible="true" lpeversion="1" satellites_param="F,0,0,1,0,12.510571,0,1 @ F,0,0,1,0,12.23652,0,1 @ F,0,0,1,0,0,0,1 @ F,0,0,1,0,0,0,1 @ F,0,0,1,0,22.793071,0,1 @ F,0,0,1,0,22.793071,0,1 @ F,0,0,1,0,0,0,1 @ F,0,0,1,0,0,0,1 @ F,0,0,1,0,0,0,1 @ F,0,0,1,0,22.793071,0,1 @ F,0,0,1,0,22.793071,0,1 @ F,0,0,1,0,0,0,1 @ F,0,0,1,0,0,0,1 @ F,0,0,1,0,14.172461,0,1 @ F,0,0,1,0,16.448634,0,1 @ F,0,0,1,0,0,0,1 @ F,0,0,1,0,0,0,1 @ F,0,0,1,0,0,0,1 @ F,0,0,1,0,9.8067983,0,1 @ F,0,0,1,0,7.4806245,0,1 @ F,0,0,1,0,0,0,1 @ F,0,0,1,0,0,0,1 @ F,0,0,1,0,0,0,1" unit="px" method="auto" mode="F" radius="0" chamfer_steps="1" flexible="false" use_knot_distance="true" apply_no_radius="true" apply_with_radius="true" only_selected="true" hide_knots="false" /><inkscape:path-effect effect="spiro" id="path-effect853" is_visible="true" lpeversion="1" /><inkscape:path-effect effect="spiro" id="path-effect928" is_visible="true" lpeversion="1" /><inkscape:path-effect effect="spiro" id="path-effect921" is_visible="true" lpeversion="1" /><inkscape:path-effect effect="spiro" id="path-effect917" is_visible="true" lpeversion="1" /><inkscape:path-effect effect="spiro" id="path-effect849" is_visible="true" lpeversion="1" /><inkscape:path-effect effect="spiro" id="path-effect851" is_visible="true" lpeversion="1" />
  <svg:style type="text/css" id="style2">
   
    .fil0 {fill:#EF7F1A;fill-rule:nonzero}
   
  </svg:style>
 <inkscape:path-effect effect="spiro" id="path-effect1214" is_visible="true" lpeversion="1" /><inkscape:path-effect effect="spiro" id="path-effect1195" is_visible="true" lpeversion="1" /><inkscape:path-effect effect="spiro" id="path-effect992" is_visible="true" lpeversion="1" /><inkscape:path-effect effect="spiro" id="path-effect1060" is_visible="true" lpeversion="1" /><inkscape:path-effect effect="spiro" id="path-effect1047" is_visible="true" lpeversion="1" /><inkscape:path-effect effect="spiro" id="path-effect1085" is_visible="true" lpeversion="1" /><inkscape:path-effect effect="spiro" id="path-effect1286" is_visible="true" lpeversion="1" /><inkscape:path-effect effect="spiro" id="path-effect117" is_visible="true" lpeversion="1" /></svg:defs>
 
<svg:g id="path115"><svg:path style="color:#000000;fill:#1a5fb4;fill-rule:nonzero;stroke-linecap:round;stroke-linejoin:round;-inkscape-stroke:none;paint-order:fill stroke markers" d="M 59.451172,-28.09375 C 40.967501,-27.776405 23.298813,-13.37676 20.601562,5.2929687 C 9.8966693,79.389691 0.6996735,153.70494 -6.9824219,228.17578 C -19.198339,346.59785 -27.966435,469.18832 -5.5136719,590.54492 C 8.6645076,667.17762 35.177424,741.43097 72.726562,809.7168 C 81.629504,825.9074400000001 94.149373,831.77227 112.16406,828.6113300000001 L 215.18555,810.53516 C 232.02729,807.58003 239.69804,801.11017 245.42383,784.98242 C 273.91057,704.74419 301.34901,624.13331 327.74023,543.18164 C 329.21578,547.77939 330.62395,552.39883 332.11914,556.99023 C 359.58249,641.32401 390.35987,724.57716 424.35547,806.49609 C 431.5923,823.93463 446.42958000000004,831.94994 464.95703000000003,828.50391 L 590.09961,805.2265600000001 C 603.9466199999999,802.6510800000001 609.12014,799.54951 617.51953,787.80469 C 650.61288,741.5304600000001 675.87134,689.7708600000001 691.9707000000001,635.1992200000001 C 718.9159,543.8637 719.43766,448.98165 713.46875,358.01367 C 705.57718,237.74373 686.08974,118.25457 655.36523,1.7089844 C 652.64695,-8.6021224 644.94661,-18.575106 634.42383,-23.335937 C 623.90105,-28.096769 611.39745,-27.303738 601.875,-22.589844 L 491.77344,31.914062 C 472.49298,41.458462 464.68293,67.931907 475.25391,86.376953 C 523.34405,170.28832 551.69793,265.70609 557.1640600000001,362.25586000000004 C 561.8429000000001,444.89928000000003 549.6557,528.53452 522.0683600000001,606.6054700000001 C 503.0507700000001,564.9424700000001 486.6769900000001,521.5937200000001 471.5996100000001,477.47656000000006 C 446.9262700000001,405.28116000000006 425.7248200000001,331.8982000000001 408.0937500000001,257.6679700000001 C 402.93540000000013,235.9503200000001 376.2683100000001,221.5367500000001 355.2402300000001,229.2480500000001 L 283.0957000000001,255.7050800000001 C 264.49489000000005,262.52627000000007 255.5418200000001,272.6519700000001 250.8710900000001,291.7910200000001 C 240.1762400000001,335.61484000000013 228.4450400000001,379.1861700000001 215.68945000000008,422.4550800000001 C 198.4286500000001,481.0064000000001 179.2356800000001,538.9844200000001 158.26367000000008,596.3125000000001 C 129.33206000000007,503.5869600000001 128.04011000000008,401.6924100000001 144.82031000000006,303.3906200000001 C 159.56525000000005,217.01183000000015 187.66258000000005,132.85259000000013 227.74805000000006,54.925781000000114 C 232.50334000000007,45.681412000000115 233.77072000000007,32.77099600000011 228.59766000000008,21.771484000000115 C 223.42459,10.771973 212.53592,3.4327545 202.29492,1.2617187 L 67.380859,-27.339844 C 64.748304,-27.897931 62.091696,-28.139084999999998 59.451172,-28.09375 M 76.902344,36.011719 L 161.42383,53.929687 C 125.43918,129.78977 99.806811,210.51254 85.675781,293.29492 C 65.853064,409.42034 68.689324,532.70299 111.69922,645.44727 C 116.11909,657.03331 121.06427,668.40333 126.28515999999999,679.64648 C 118.69671,698.54126 110.91024999999999,717.35583 102.91991999999999,736.08398 C 80.166489,686.19608 63.455554,633.52482 53.484375,579.63086 C 32.87001,468.21075 40.626215,351.38762 52.701172,234.33203 C 59.53522,168.08222 67.649134,101.9672 76.902344,36.011719 M 603.9511699999999,43.332031 C 629.8287999999999,147.80064 646.55107,254.54921 653.5976599999999,361.94141 C 659.3674299999999,449.87455 658.2087899999999,537.59929 634.42383,618.22266 C 623.4155599999999,655.53713 607.44637,691.4225200000001 587.2421899999999,724.70117 A 30.003,30.003 0.0 0,0 585.12109,720.67969 C 575.72965,706.63565 566.9423899999999,692.19744 558.50391,677.56055 C 563.96846,665.31444 569.08861,652.91291 573.82812,640.36523 C 607.63721,550.85704 622.47743,454.40702 617.06836,358.86523 C 611.48589,260.26074 584.2587,163.1809 538.0,75.980469 L 603.9511699999999,43.332031 M 355.13672,293.19336 C 357.63032000000004,303.28049999999996 360.08289,313.37721 362.70508,323.43163999999996 A 30.003,30.003 0.0 0,0 359.67383,322.79296999999997 L 306.36719,316.9043 C 306.87273,314.86683999999997 307.43244,312.84323 307.93359,310.80469 C 307.54287,311.03138 306.81838,310.91137 303.75390999999996,312.03516 L 308.01953,310.4707 C 308.38536,308.98185 308.79863,307.50505000000004 309.16211,306.01562 C 308.3859,309.19628 308.61724,309.92687 308.42187,310.32422 L 355.13672,293.19336 M 378.71094000000005,381.89844 C 389.81187000000006,420.51175 401.82898000000006,458.86187 414.82227000000006,496.88086 C 435.9494000000001,558.69989 459.95184000000006,620.54581 491.08008000000007,679.63672 C 481.63018000000005,698.40504 471.24976000000004,716.69943 459.9707000000001,734.42383 C 434.3628700000001,669.8335199999999 410.6844400000001,604.4764 389.16992000000005,538.4101599999999 C 378.87421000000006,506.7943499999999 369.07988000000006,475.0157899999999 359.73633000000007,443.1054699999999 C 366.1396000000001,422.7272999999999 372.44072000000006,402.3179399999999 378.71094000000005,381.89843999999994 L 378.71094000000005,381.89844 M 284.79102000000006,398.45898 C 288.78001000000006,413.10099 292.90056000000004,427.7059 297.08594000000005,442.29296999999997 C 288.48308000000003,469.49575999999996 279.79800000000006,496.67249999999996 270.95703000000003,523.79883 C 251.02237000000002,584.96344 230.28605000000005,645.8623799999999 209.14648000000003,706.62109 C 203.06266000000002,696.94441 197.22933000000003,687.11347 191.86523000000003,677.01758 C 222.35791000000003,599.02469 249.56045000000003,519.7453899999999 273.24023,439.41991999999993 C 277.25168,425.81249999999994 280.97832999999997,412.1233899999999 284.79102,398.45897999999994 L 284.79102000000006,398.45898" id="path6423" /></svg:g></svg:svg>

<svg:svg xmlns:cc="http://creativecommons.org/ns#" xmlns:dc="http://purl.org/dc/elements/1.1/" xmlns:inkscape="http://www.inkscape.org/namespaces/inkscape" xmlns:rdf="http://www.w3.org/1999/02/22-rdf-syntax-ns#" xmlns:sodipodi="http://sodipodi.sourceforge.net/DTD/sodipodi-0.dtd" xmlns:svg="http://www.w3.org/2000/svg" xml:space="preserve" width="1000" height="1000" version="1.1" style="clip-rule:evenodd;fill-rule:evenodd;image-rendering:optimizeQuality;shape-rendering:geometricPrecision;text-rendering:geometricPrecision" viewBox="0 0 1000 1000" id="svg10" sodipodi:docname="W.svg" inkscape:version="1.1.1 (3bf5ae0d25, 2021-09-20)"><svg:text text-anchor="middle" x="338.67004" y="5.2860184" id="top" inkscape:label="top" style="clip-rule:evenodd;fill-rule:evenodd;image-rendering:optimizeQuality;shape-rendering:geometricPrecision;text-rendering:geometricPrecision">✛</svg:text><svg:metadata id="metadata14"><rdf:RDF><cc:Work rdf:about=""><dc:format>image/svg+xml</dc:format><dc:type rdf:resource="http://purl.org/dc/dcmitype/StillImage" /></cc:Work></rdf:RDF></svg:metadata><sodipodi:namedview pagecolor="#ffffff" bordercolor="#666666" borderopacity="1" objecttolerance="10" gridtolerance="10" guidetolerance="10" inkscape:pageopacity="0" inkscape:pageshadow="2" inkscape:window-width="1920" inkscape:window-height="1129" id="namedview12" showgrid="false" inkscape:zoom="1.4269146" inkscape:cx="286.98284" inkscape:cy="709.92336" inkscape:window-x="0" inkscape:window-y="0" inkscape:window-maximized="1" inkscape:current-layer="svg10" showguides="true" inkscape:guide-bbox="true" inkscape:document-rotation="0" inkscape:pagecheckerboard="0"><sodipodi:guide position="0,1000" orientation="0,1" id="guide16" inkscape:label="" inkscape:locked="true" inkscape:color="rgb(0,0,255)" /><sodipodi:guide position="1763.3122,2036.1693" orientation="1000,0" id="guide18" /><sodipodi:guide position="0,200" orientation="0,1" id="guide20" inkscape:label="base" inkscape:locked="true" inkscape:color="rgb(0,0,255)" /><inkscape:grid type="xygrid" id="grid24" originx="-473.37552" originy="-489.69235" /><sodipodi:guide position="0,0" orientation="0,1" id="guide34" inkscape:label="bottom" inkscape:locked="true" inkscape:color="rgb(0,0,255)" /><sodipodi:guide position="225.05109,1693.3186" orientation="0,1" id="guide44" inkscape:label="" inkscape:locked="false" inkscape:color="rgb(0,0,255)" /><sodipodi:guide position="0,900" orientation="0,1" id="guide46" inkscape:label="" inkscape:locked="true" inkscape:color="rgb(0,0,255)" /><sodipodi:guide position="703.55683,1000" orientation="1,0" id="guide841" inkscape:label="width" />    </sodipodi:namedview>
 <svg:defs id="defs4"><inkscape:path-effect effect="fillet_chamfer" id="path-effect1202" is_visible="true" lpeversion="1" satellites_param="F,0,0,1,0,9.683261,0,1 @ F,0,0,1,0,9.683261,0,1 @ F,0,0,1,0,0,0,1 @ F,0,0,1,0,0,0,1 @ F,0,1,1,0,5.4184073,0,1 @ F,0,0,1,0,5.4184073,0,1 @ F,0,0,1,0,0,0,1 @ F,0,0,1,0,0,0,1 @ F,0,0,1,0,0,0,1 @ F,0,0,1,0,0,0,1 @ F,0,1,1,0,5.4184073,0,1 @ F,0,1,1,0,5.4184073,0,1 @ F,0,0,1,0,0,0,1 @ F,0,0,1,0,0,0,1 @ F,0,0,1,0,9.683261,0,1 @ F,0,0,1,0,9.683261,0,1 @ F,0,0,1,0,0,0,1 @ F,0,0,1,0,0,0,1 @ F,0,0,1,0,0,0,1 @ F,0,0,1,0,0,0,1 @ F,0,0,1,0,0,0,1 @ F,0,0,1,0,0,0,1 @ F,0,0,1,0,11.42124,0,1 @ F,0,0,1,0,11.42124,0,1 @ F,0,0,1,0,0,0,1 @ F,0,0,1,0,0,0,1 @ F,0,0,1,0,0,0,1 @ F,0,0,1,0,0,0,1 @ F,0,0,1,0,0,0,1" unit="px" method="auto" mode="F" radius="0" chamfer_steps="1" flexible="false" use_knot_distance="true" apply_no_radius="true" apply_with_radius="true" only_selected="false" hide_knots="false" /><inkscape:path-effect effect="fillet_chamfer" id="path-effect855" is_visible="true" lpeversion="1" satellites_param="F,0,0,1,0,9.8112539,0,1 @ F,0,0,1,0,9.8112539,0,1 @ F,0,0,1,0,0,0,1 @ F,0,0,1,0,0,0,1 @ F,0,0,1,0,9.8112539,0,1 @ F,0,0,1,0,9.8112539,0,1 @ F,0,0,1,0,0,0,1 @ F,0,0,1,0,0,0,1 @ F,0,0,1,0,0,0,1 @ F,0,0,1,0,0,0,1 @ F,0,0,1,0,9.8112539,0,1 @ F,0,0,1,0,9.8112539,0,1 @ F,0,0,1,0,0,0,1 @ F,0,0,1,0,0,0,1 @ F,0,0,1,0,9.8112539,0,1 @ F,0,0,1,0,9.8112539,0,1 @ F,0,0,1,0,0,0,1 @ F,0,0,1,0,0,0,1 @ F,0,0,1,0,0,0,1 @ F,0,0,1,0,0,0,1 @ F,0,0,1,0,0,0,1 @ F,0,0,1,0,0,0,1 @ F,0,0,1,0,9.8112539,0,1 @ F,0,0,1,0,10.790443,0,1 @ F,0,0,1,0,0,0,1 @ F,0,0,1,0,0,0,1 @ F,0,0,1,0,0,0,1 @ F,0,0,1,0,0,0,1 @ F,0,0,1,0,0,0,1" unit="px" method="auto" mode="F" radius="0" chamfer_steps="1" flexible="false" use_knot_distance="true" apply_no_radius="true" apply_with_radius="true" only_selected="false" hide_knots="false" /><inkscape:path-effect effect="fillet_chamfer" id="path-effect854" is_visible="true" lpeversion="1" satellites_param="F,0,0,1,0,12.510571,0,1 @ F,0,0,1,0,12.23652,0,1 @ F,0,0,1,0,0,0,1 @ F,0,0,1,0,0,0,1 @ F,0,0,1,0,22.793071,0,1 @ F,0,0,1,0,22.793071,0,1 @ F,0,0,1,0,0,0,1 @ F,0,0,1,0,0,0,1 @ F,0,0,1,0,0,0,1 @ F,0,0,1,0,22.793071,0,1 @ F,0,0,1,0,22.793071,0,1 @ F,0,0,1,0,0,0,1 @ F,0,0,1,0,0,0,1 @ F,0,0,1,0,14.172461,0,1 @ F,0,0,1,0,16.448634,0,1 @ F,0,0,1,0,0,0,1 @ F,0,0,1,0,0,0,1 @ F,0,0,1,0,0,0,1 @ F,0,0,1,0,9.8067983,0,1 @ F,0,0,1,0,7.4806245,0,1 @ F,0,0,1,0,0,0,1 @ F,0,0,1,0,0,0,1 @ F,0,0,1,0,0,0,1" unit="px" method="auto" mode="F" radius="0" chamfer_steps="1" flexible="false" use_knot_distance="true" apply_no_radius="true" apply_with_radius="true" only_selected="true" hide_knots="false" /><inkscape:path-effect effect="spiro" id="path-effect853" is_visible="true" lpeversion="1" /><inkscape:path-effect effect="spiro" id="path-effect928" is_visible="true" lpeversion="1" /><inkscape:path-effect effect="spiro" id="path-effect921" is_visible="true" lpeversion="1" /><inkscape:path-effect effect="spiro" id="path-effect917" is_visible="true" lpeversion="1" /><inkscape:path-effect effect="spiro" id="path-effect849" is_visible="true" lpeversion="1" /><inkscape:path-effect effect="spiro" id="path-effect851" is_visible="true" lpeversion="1" />
  <svg:style type="text/css" id="style2">
   
    .fil0 {fill:#EF7F1A;fill-rule:nonzero}
   
  </svg:style>
 <inkscape:path-effect effect="spiro" id="path-effect1214" is_visible="true" lpeversion="1" /><inkscape:path-effect effect="spiro" id="path-effect1195" is_visible="true" lpeversion="1" /><inkscape:path-effect effect="spiro" id="path-effect992" is_visible="true" lpeversion="1" /><inkscape:path-effect effect="spiro" id="path-effect1060" is_visible="true" lpeversion="1" /><inkscape:path-effect effect="spiro" id="path-effect1047" is_visible="true" lpeversion="1" /><inkscape:path-effect effect="spiro" id="path-effect1085" is_visible="true" lpeversion="1" /><inkscape:path-effect effect="spiro" id="path-effect1286" is_visible="true" lpeversion="1" /><inkscape:path-effect effect="spiro" id="path-effect117" is_visible="true" lpeversion="1" /></svg:defs>
 
<svg:g id="path115"><svg:path style="color:#000000;fill:#1a5fb4;fill-rule:nonzero;stroke-linecap:round;stroke-linejoin:round;-inkscape-stroke:none" d="M 59.451172,-28.09375 C 40.967501,-27.776405 23.298813,-13.37676 20.601562,5.2929687 9.8966693,79.389691 0.6996735,153.70494 -6.9824219,228.17578 -19.198339,346.59785 -27.966435,469.18832 -5.5136719,590.54492 8.6645076,667.17762 35.177424,741.43097 72.726562,809.7168 c 8.902942,16.19064 21.422811,22.05547 39.437498,18.89453 l 103.02149,-18.07617 c 16.84174,-2.95513 24.51249,-9.42499 30.23828,-25.55274 28.48674,-80.23823 55.92518,-160.84911 82.3164,-241.80078 1.47555,4.59775 2.88372,9.21719 4.37891,13.80859 27.46335,84.33378 58.24073,167.58693 92.23633,249.50586 7.23683,17.43854 22.07411,25.45385 40.60156,22.00782 l 125.14258,-23.27735 c 13.84701,-2.57548 19.02053,-5.67705 27.41992,-17.42187 33.09335,-46.27423 58.35181,-98.03383 74.45117,-152.60547 C 718.9159,543.8637 719.43766,448.98165 713.46875,358.01367 705.57718,237.74373 686.08974,118.25457 655.36523,1.7089844 652.64695,-8.6021224 644.94661,-18.575106 634.42383,-23.335937 623.90105,-28.096769 611.39745,-27.303738 601.875,-22.589844 L 491.77344,31.914062 c -19.28046,9.5444 -27.09051,36.017845 -16.51953,54.462891 48.09014,83.911367 76.44402,179.329137 81.91015,275.878907 4.67884,82.64342 -7.50836,166.27866 -35.0957,244.34961 -19.01759,-41.663 -35.39137,-85.01175 -50.46875,-129.12891 -24.67334,-72.1954 -45.87479,-145.57836 -63.50586,-219.80859 -5.15835,-21.71765 -31.82544,-36.13122 -52.85352,-28.41992 l -72.14453,26.45703 c -18.60081,6.82119 -27.55388,16.94689 -32.22461,36.08594 -10.69485,43.82382 -22.42605,87.39515 -35.18164,130.66406 -17.2608,58.55132 -36.45377,116.52934 -57.42578,173.85742 -28.93161,-92.72554 -30.22356,-194.62009 -13.44336,-292.92188 14.74494,-86.37879 42.84227,-170.53803 82.92774,-248.464839 4.75529,-9.244369 6.02267,-22.154785 0.84961,-33.154297 C 223.42459,10.771973 212.53592,3.4327545 202.29492,1.2617187 L 67.380859,-27.339844 c -2.632555,-0.558087 -5.289163,-0.799241 -7.929687,-0.753906 z M 76.902344,36.011719 161.42383,53.929687 C 125.43918,129.78977 99.806811,210.51254 85.675781,293.29492 65.853064,409.42034 68.689324,532.70299 111.69922,645.44727 c 4.41987,11.58604 9.36505,22.95606 14.58594,34.19921 -7.58845,18.89478 -15.37491,37.70935 -23.36524,56.4375 C 80.166489,686.19608 63.455554,633.52482 53.484375,579.63086 32.87001,468.21075 40.626215,351.38762 52.701172,234.33203 59.53522,168.08222 67.649134,101.9672 76.902344,36.011719 Z m 527.048826,7.320312 c 25.87763,104.468609 42.5999,211.217179 49.64649,318.609379 5.76977,87.93314 4.61113,175.65788 -19.17383,256.28125 -11.00827,37.31447 -26.97746,73.19986 -47.18164,106.47851 a 30.003,30.003 0 0 0 -2.1211,-4.02148 c -9.39144,-14.04404 -18.1787,-28.48225 -26.61718,-43.11914 5.46455,-12.24611 10.5847,-24.64764 15.32421,-37.19532 33.80909,-89.50819 48.64931,-185.95821 43.24024,-281.5 C 611.48589,260.26074 584.2587,163.1809 538,75.980469 Z M 355.13672,293.19336 c 2.4936,10.08714 4.94617,20.18385 7.56836,30.23828 a 30.003,30.003 0 0 0 -3.03125,-0.63867 l -53.30664,-5.88867 c 0.50554,-2.03746 1.06525,-4.06107 1.5664,-6.09961 -0.39072,0.22669 -1.11521,0.10668 -4.17968,1.23047 l 4.26562,-1.56446 c 0.36583,-1.48885 0.7791,-2.96565 1.14258,-4.45508 -0.77621,3.18066 -0.54487,3.91125 -0.74024,4.3086 z m 23.57422,88.70508 c 11.10093,38.61331 23.11804,76.96343 36.11133,114.98242 21.12713,61.81903 45.12957,123.66495 76.25781,182.75586 -9.4499,18.76832 -19.83032,37.06271 -31.10938,54.78711 -25.60783,-64.59031 -49.28626,-129.94743 -70.80078,-196.01367 -10.29571,-31.61581 -20.09004,-63.39437 -29.43359,-95.30469 6.40327,-20.37817 12.70439,-40.78753 18.97461,-61.20703 z m -93.91992,16.56054 c 3.98899,14.64201 8.10954,29.24692 12.29492,43.83399 -8.60286,27.20279 -17.28794,54.37953 -26.12891,81.50586 -19.93466,61.16461 -40.67098,122.06355 -61.81055,182.82226 -6.08382,-9.67668 -11.91715,-19.50762 -17.28125,-29.60351 30.49268,-77.99289 57.69522,-157.27219 81.375,-237.59766 4.01145,-13.60742 7.7381,-27.29653 11.55079,-40.96094 z" id="path6411" /></svg:g></svg:svg>
